;FLAVOR:UltiGCode
;TIME:5013
;MATERIAL:8560
;MATERIAL2:0
;NOZZLE_DIAMETER:0.4
;MINX:71.233
;MINY:61.312
;MINZ:0.27
;MAXX:149.862
;MAXY:161.688
;MAXZ:7.32
;Generated with Cura_SteamEngine main
M82 ;absolute extrusion mode
G0 F3000 Y50 ;avoid prime blob
G92 E0
G92 E0
G10
;LAYER_COUNT:48
;LAYER:0
M107
G0 F4500 X71.891 Y62.59 Z0.27
G0 X71.233 Y65.138
;TYPE:SKIRT
G11
G1 F1800 X71.248 Y64.137 E0.10812
G1 X71.417 Y63.48 E0.18139
G1 X71.891 Y62.59 E0.29029
G1 X72.618 Y61.892 E0.39913
G1 X73.526 Y61.455 E0.50796
G1 X74.021 Y61.349 E0.56264
G1 X74.669 Y61.313 E0.63273
G1 X96.423 Y61.312 E2.98216
G1 X97.979 Y61.324 E3.15021
G1 X113.222 Y61.324 E4.79646
G1 X114.871 Y61.312 E4.97455
G1 X135.242 Y61.312 E7.17462
G1 X136.284 Y61.327 E7.28717
G1 X136.938 Y61.495 E7.3601
G1 X137.401 Y61.697 E7.41465
G1 X137.951 Y62.046 E7.485
G1 X140.153 Y64.277 E7.82354
G1 X142.12 Y66.159 E8.11756
G1 X142.687 Y66.673 E8.20021
G1 X143.686 Y67.603 E8.34761
G1 X144.061 Y68.169 E8.42094
G1 X144.27 Y68.63 E8.47561
G1 X144.403 Y69.117 E8.53013
G1 X144.469 Y69.708 E8.59435
G1 X144.471 Y76.013 E9.27529
G1 X144.461 Y76.723 E9.35198
G1 X144.4 Y77.45 E9.43077
G1 X144.165 Y80.233 E9.73241
G1 X144.012 Y82.953 E10.02663
G1 X143.935 Y85.703 E10.32375
G1 X143.935 Y88.422 E10.6174
G1 X144.014 Y91.174 E10.91474
G1 X144.168 Y93.883 E11.20778
G1 X144.338 Y95.725 E11.40756
G1 X144.34 Y95.882 E11.42452
G1 X144.469 Y97.378 E11.58669
G1 X144.47 Y100.518 E11.92581
G1 X144.51 Y103.315 E12.22792
G1 X144.625 Y106.032 E12.52162
G1 X144.82 Y108.778 E12.81893
G1 X145.088 Y111.484 E13.11261
G1 X145.436 Y114.207 E13.40908
G1 X145.861 Y116.908 E13.70438
G1 X146.364 Y119.616 E14.00185
G1 X146.936 Y122.273 E14.29538
G1 X147.584 Y124.92 E14.5897
G1 X148.311 Y127.56 E14.88543
G1 X149.117 Y130.193 E15.18282
G1 X149.335 Y130.837 E15.25625
G1 X149.797 Y132.27 E15.41886
G1 X149.862 Y132.978 E15.49564
G1 X149.862 Y152.845 E17.64128
G1 X149.847 Y153.887 E17.75382
G1 X149.679 Y154.541 E17.82675
G1 X149.477 Y155.004 E17.88131
G1 X149.055 Y155.615 E17.9615
G1 X148.313 Y156.458 E18.08279
G1 X147.729 Y157.106 E18.177
G1 X145.952 Y159.192 E18.47295
G1 X145.407 Y159.868 E18.56673
G1 X144.648 Y160.782 E18.69504
G1 X144.105 Y161.187 E18.7682
G1 X143.177 Y161.582 E18.87713
G1 X142.412 Y161.688 E18.96054
G1 X141.064 Y161.688 E19.10612
G1 X140.363 Y161.678 E19.18184
G1 X139.825 Y161.624 E19.24023
G1 X138.699 Y161.415 E19.36392
G1 X135.952 Y160.944 E19.66492
G1 X133.23 Y160.556 E19.96187
G1 X130.555 Y160.252 E20.25263
G1 X127.784 Y160.017 E20.55297
G1 X124.758 Y159.848 E20.88029
G1 X124.122 Y159.772 E20.94947
G1 X123.54 Y159.672 E21.01324
G1 X122.922 Y159.514 E21.08213
G1 X121.845 Y158.981 E21.21191
G1 X121.181 Y158.557 E21.297
G1 X120.547 Y157.885 E21.39678
G1 X120.117 Y157.397 E21.46702
G1 X119.77 Y156.934 E21.52951
G1 X118.796 Y155.047 E21.75885
G1 X117.436 Y152.59 E22.06215
G1 X116.075 Y150.286 E22.35115
G1 X114.608 Y147.957 E22.64842
G1 X113.085 Y145.684 E22.94392
G1 X111.49 Y143.444 E23.2409
G1 X109.845 Y141.265 E23.53576
G1 X108.129 Y139.121 E23.83235
G1 X106.37 Y137.047 E24.12605
G1 X104.533 Y135.002 E24.42294
G1 X102.658 Y133.028 E24.71697
G1 X100.701 Y131.082 E25.01504
G1 X98.689 Y129.193 E25.31309
G1 X96.687 Y127.416 E25.6022
G1 X94.548 Y125.621 E25.90378
G1 X92.433 Y123.948 E26.19502
G1 X90.204 Y122.284 E26.49543
G1 X87.983 Y120.722 E26.78868
G1 X85.718 Y119.223 E27.08202
G1 X83.368 Y117.763 E27.38081
G1 X81.026 Y116.396 E27.67368
G1 X78.59 Y115.065 E27.97348
G1 X76.205 Y113.85 E28.26256
G1 X74.372 Y112.975 E28.48192
G1 X72.782 Y112.232 E28.67147
G1 X72.253 Y111.808 E28.74468
G1 X71.913 Y111.434 E28.79927
G1 X71.429 Y110.55 E28.90812
G1 X71.297 Y110.062 E28.96272
G1 X71.233 Y109.461 E29.02799
G1 X71.233 Y102.973 E29.7287
G1 X71.245 Y102.142 E29.81845
G1 X71.34 Y101.174 E29.9235
G1 X71.481 Y99.929 E30.05882
G1 X71.709 Y97.246 E30.34963
G1 X71.865 Y94.493 E30.64743
G1 X71.953 Y90.389 E31.09076
G1 X71.953 Y83.636 E31.82009
G1 X71.913 Y80.838 E32.1223
G1 X71.798 Y78.121 E32.416
G1 X71.603 Y75.371 E32.71374
G1 X71.335 Y72.662 E33.00775
G1 X71.258 Y71.869 E33.09379
G1 X71.233 Y70.617 E33.22903
G1 X71.233 Y65.138 E33.82077
G10
G0 F4500 X74.553 Y64.632
;TYPE:SUPPORT
G11
G1 F1800 X74.553 Y68.592 E34.24845
G1 X74.676 Y68.592 E34.26173
G1 X74.676 Y64.633 E34.6893
G1 X77.343 Y64.633 E34.97734
G1 X77.343 Y68.592 E35.40491
G1 X80.01 Y68.592 E35.69295
G1 X80.01 Y64.634 E36.12041
G1 X82.677 Y64.635 E36.40845
G1 X82.677 Y68.592 E36.8358
G1 X85.344 Y68.592 E37.12384
G1 X85.344 Y64.635 E37.55119
G1 X88.011 Y64.636 E37.83923
G1 X88.011 Y68.592 E38.26648
G1 X90.678 Y68.592 E38.55451
G1 X90.678 Y64.637 E38.98165
G1 X93.113 Y64.637 E39.24463
G1 X93.113 Y66.675 E39.46474
G1 X74.553 Y66.675 E41.46922
G10
G0 F4500 X73.749 Y69.028
G0 X73.749 Y104.966
G0 X74.676 Y105.402
G11
G1 F1800 X74.676 Y109.347 E41.89528
G1 X93.113 Y109.347 E43.88647
G1 X93.113 Y106.68 E44.17451
G1 X74.553 Y106.68 E46.17899
G1 X74.553 Y105.402 E46.31701
G1 X77.343 Y105.402 E46.61833
G1 X77.343 Y109.362 E47.04601
G1 X80.01 Y109.362 E47.33405
G1 X80.01 Y105.402 E47.76173
G1 X82.677 Y105.402 E48.04977
G1 X82.677 Y109.362 E48.47745
G1 X85.344 Y109.362 E48.76548
G1 X85.344 Y105.402 E49.19316
G1 X88.011 Y105.402 E49.4812
G1 X88.011 Y109.362 E49.90888
G1 X90.678 Y109.362 E50.19691
G1 X90.678 Y105.402 E50.62459
G1 X93.113 Y105.402 E50.88757
G10
G0 F4500 X93.549 Y110.166
G0 X116.787 Y110.164
G0 X117.348 Y105.402
G11
G1 F1800 X117.348 Y109.347 E51.31363
G1 X135.783 Y109.347 E53.30461
G1 X135.783 Y106.68 E53.59265
G1 X117.223 Y106.68 E55.59713
G1 X117.223 Y105.402 E55.73515
G1 X120.015 Y105.402 E56.03669
G1 X120.015 Y109.368 E56.46502
G1 X122.682 Y109.367 E56.75305
G1 X122.682 Y105.402 E57.18127
G1 X125.349 Y105.402 E57.46931
G1 X125.349 Y109.366 E57.89742
G1 X128.016 Y109.365 E58.18546
G1 X128.016 Y105.402 E58.61346
G1 X130.683 Y105.402 E58.9015
G1 X130.683 Y109.364 E59.32939
G1 X133.35 Y109.363 E59.61743
G1 X133.35 Y105.402 E60.04522
G1 X134.013 Y105.402 E60.11682
G10
G0 F4500 X137.693 Y105.066
G0 X138.684 Y97.532
G11
G1 F1800 X138.684 Y104.262 E60.84366
G1 X141.151 Y104.262 E61.1101
G1 X141.151 Y104.013 E61.13699
G1 X138.235 Y104.013 E61.45192
G1 X138.235 Y101.346 E61.73995
G1 X141.151 Y101.346 E62.05488
G1 X141.151 Y98.679 E62.34292
G1 X138.235 Y98.679 E62.65785
G1 X138.235 Y97.532 E62.78172
G1 X141.15 Y97.532 E63.09654
G10
G0 F4500 X142.286 Y128.038
G11
G1 F1800 X141.351 Y128.038 E63.19752
G1 X141.351 Y158.368 E66.47316
G1 X142.286 Y158.368 E66.57414
G1 X142.286 Y157.353 E66.68376
G1 X140.522 Y157.353 E66.87427
G1 X140.522 Y156.895 E66.92374
G1 X140.171 Y156.544 E66.97735
G1 X138.684 Y156.544 E67.13794
G1 X138.684 Y130.051 E69.99919
G1 X136.017 Y130.051 E70.28722
G1 X136.017 Y156.544 E73.14847
G1 X133.35 Y156.544 E73.4365
G1 X133.35 Y130.051 E76.29775
G1 X130.683 Y130.051 E76.58578
G1 X130.683 Y156.544 E79.44703
G1 X128.016 Y156.544 E79.73506
G1 X128.016 Y130.051 E82.59631
G1 X125.349 Y130.051 E82.88434
G1 X125.349 Y156.544 E85.74559
G1 X124.959 Y156.544 E85.78771
G1 X124.101 Y156.41 E85.8815
G1 X123.336 Y156.017 E85.97438
G1 X122.682 Y155.299 E86.07927
G1 X122.682 Y131.278 E88.67354
G1 X123.208 Y130.683 E88.75931
G1 X142.286 Y130.683 E90.81973
G1 X142.286 Y131.821 E90.94264
G1 X141.939 Y131.821 E90.98011
G1 X141.94 Y133.35 E91.14525
G1 X122.2 Y133.35 E93.27717
G1 X122.2 Y136.017 E93.5652
G1 X141.94 Y136.017 E95.69712
G1 X141.94 Y138.684 E95.98516
G1 X122.2 Y138.684 E98.11708
G1 X122.2 Y141.351 E98.40511
G1 X141.94 Y141.351 E100.53703
G1 X141.94 Y144.018 E100.82507
G1 X122.2 Y144.018 E102.95699
G1 X122.2 Y146.685 E103.24503
G1 X141.94 Y146.685 E105.37695
G1 X141.94 Y149.352 E105.66498
G1 X122.2 Y149.352 E107.7969
G1 X122.201 Y153.788 E108.27599
G1 X122.343 Y154.686 E108.37418
G1 X142.286 Y154.686 E110.52802
G1 X142.286 Y154.626 E110.5345
G1 X141.94 Y154.626 E110.57187
G1 X141.94 Y152.019 E110.85343
G1 X122.2 Y152.019 E112.98535
G10
G0 F4500 X142.376 Y154.19
G0 X144.106 Y154.19
G0 X144.542 Y149.352
G11
G1 F1800 X146.542 Y149.352 E113.20135
G1 X146.542 Y152.019 E113.48938
G1 X144.542 Y152.019 E113.70538
G1 X144.542 Y146.685 E114.28145
G1 X146.542 Y146.685 E114.49745
G1 X146.542 Y144.018 E114.78549
G1 X144.542 Y144.018 E115.00149
G1 X144.542 Y141.351 E115.28953
G1 X146.542 Y141.351 E115.50553
G1 X146.542 Y138.684 E115.79356
G1 X144.542 Y138.684 E116.00956
G1 X144.542 Y136.017 E116.2976
G1 X146.542 Y136.017 E116.5136
G1 X146.542 Y133.35 E116.80163
G1 X144.542 Y133.35 E117.01763
G1 X144.542 Y133.061 E117.04885
G1 X146.542 Y133.061 E117.26485
G10
G0 F4500 X141.15 Y69.832
G11
G1 F1800 X138.235 Y69.832 E117.57967
G1 X138.235 Y72.009 E117.81478
G1 X141.151 Y72.009 E118.12971
G1 X141.151 Y74.676 E118.41775
G1 X138.235 Y74.676 E118.73267
G1 X138.235 Y76.562 E118.93636
G1 X138.684 Y76.562 E118.98485
G1 X138.684 Y69.832 E119.71169
G10
G0 F4500 X135.783 Y64.632
G11
G1 F1800 X130.683 Y64.632 E120.26249
G1 X130.683 Y68.592 E120.69017
G1 X128.016 Y68.592 E120.97821
G1 X128.016 Y64.632 E121.40589
G1 X125.349 Y64.632 E121.69393
G1 X125.349 Y68.592 E122.12161
G1 X122.682 Y68.592 E122.40964
G1 X122.682 Y64.632 E122.83732
G1 X120.015 Y64.632 E123.12536
G1 X120.015 Y68.592 E123.55304
G1 X117.348 Y68.592 E123.84107
G1 X117.348 Y64.632 E124.26875
G1 X117.223 Y64.632 E124.28225
G1 X117.223 Y66.675 E124.5029
G1 X135.783 Y66.675 E126.50738
G1 X135.783 Y68.592 E126.71441
G1 X133.35 Y68.592 E126.97718
G1 X133.35 Y64.632 E127.40486
G10
;MESH:Drawbot_foldable_camera.stl
G0 F4500 X116.787 Y69.028
G0 X114.007 Y71.51
;TYPE:WALL-OUTER
G11
G1 F1800 X114.364 Y71.477 E127.44358
G1 X114.518 Y71.653 E127.46884
G1 X114.509 Y72.174 E127.52511
G1 X114.427 Y72.281 E127.53967
G1 X114.011 Y72.275 E127.5846
G1 X113.905 Y72.126 E127.60435
G1 X113.903 Y71.687 E127.65177
G1 X114.007 Y71.51 E127.67394
G0 F4500 X114.206 Y71.492
G10
G0 X114.206 Y71.172
G0 X114.742 Y72.768
G0 X122.468 Y81.707
G0 X122.801 Y82.509
G11
G1 F1800 X122.919 Y82.091 E127.72085
G1 X123.192 Y81.685 E127.77368
G1 X123.499 Y81.438 E127.81624
G1 X123.947 Y81.259 E127.86834
G1 X124.392 Y81.231 E127.9165
G1 X124.798 Y81.326 E127.96153
G1 X125.175 Y81.542 E128.00845
G1 X125.483 Y81.871 E128.05713
G1 X125.67 Y82.257 E128.10345
G1 X125.737 Y82.698 E128.15162
G1 X125.678 Y83.105 E128.19604
G1 X125.486 Y83.521 E128.24552
G1 X125.183 Y83.845 E128.29343
G1 X124.803 Y84.065 E128.34085
G1 X124.375 Y84.164 E128.3883
G1 X123.95 Y84.135 E128.4343
G1 X123.5 Y83.956 E128.48661
G1 X123.159 Y83.672 E128.53454
G1 X122.92 Y83.305 E128.58184
G1 X122.809 Y82.942 E128.62283
G1 X122.801 Y82.509 E128.6696
G0 F4500 X122.855 Y82.317
G10
G0 X122.371 Y82.168
G0 X122.698 Y83.343
G0 X123.344 Y84.528
G0 X123.344 Y89.416
G0 X122.809 Y91.492
G11
G1 F1800 X122.801 Y91.059 E128.71638
G1 X122.945 Y90.586 E128.76977
G1 X123.163 Y90.268 E128.81141
G1 X123.499 Y89.988 E128.85865
G1 X123.95 Y89.809 E128.91105
G1 X124.402 Y89.783 E128.95995
G1 X124.799 Y89.877 E129.00401
G1 X125.181 Y90.097 E129.05162
G1 X125.487 Y90.426 E129.10015
G1 X125.67 Y90.807 E129.14579
G1 X125.737 Y91.248 E129.19397
G1 X125.678 Y91.655 E129.23838
G1 X125.482 Y92.076 E129.28854
G1 X125.174 Y92.403 E129.33705
G1 X124.802 Y92.616 E129.38335
G1 X124.392 Y92.712 E129.42883
G1 X123.938 Y92.683 E129.47796
G1 X123.529 Y92.525 E129.52531
G1 X123.186 Y92.254 E129.57252
G1 X122.946 Y91.909 E129.61791
G1 X122.809 Y91.492 E129.66532
G0 F4500 X122.806 Y91.292
G10
G0 X122.36 Y91.736
G0 X120.419 Y90.022
G0 X101.858 Y80.8
G11
G1 F1800 X104.125 Y78.541 E130.01096
G1 X106.965 Y77.098 E130.355
G1 X110.118 Y76.597 E130.69979
G1 X113.287 Y77.103 E131.04638
G1 X116.131 Y78.555 E131.39125
G1 X118.382 Y80.806 E131.73506
G1 X119.836 Y83.653 E132.08031
G1 X120.338 Y86.818 E132.4264
G1 X119.832 Y89.984 E132.77267
G1 X118.38 Y92.83 E133.11773
G1 X116.126 Y95.083 E133.46192
G1 X113.27 Y96.536 E133.80799
G1 X110.118 Y97.038 E134.1527
G1 X106.965 Y96.536 E134.49751
G1 X104.112 Y95.084 E134.84324
G1 X101.854 Y92.83 E135.18781
G1 X101.778 Y92.842 E135.19612
G1 X96.939 Y86.735 E136.03763
G1 X96.92 Y86.514 E136.06159
G1 X101.786 Y80.787 E136.87322
G1 X101.858 Y80.8 E136.88112
G0 F4500 X101.999 Y80.659
G10
G0 X101.689 Y80.261
G0 X97.09 Y85.969
G0 X87.064 Y78.503
G0 X90.766 Y80.557
G11
G1 F1800 X90.762 Y82.742 E137.1171
G1 X90.601 Y82.898 E137.14131
G1 X89.528 Y82.9 E137.25719
G1 X85.795 Y80.349 E137.7455
G1 X85.74 Y80.243 E137.7584
G1 X85.738 Y79.264 E137.86413
G1 X85.777 Y79.144 E137.87776
G1 X85.904 Y79.066 E137.89386
G1 X89.371 Y79.064 E138.26829
G1 X89.371 Y78.553 E138.32348
G1 X89.423 Y78.418 E138.33911
G1 X89.536 Y78.355 E138.35308
G1 X90.602 Y78.356 E138.46821
G1 X90.745 Y78.463 E138.48749
G1 X90.766 Y79.064 E138.55244
G1 X91.769 Y79.064 E138.66077
G1 X91.917 Y79.237 E138.68535
G1 X91.919 Y80.4 E138.81096
G1 X91.792 Y80.557 E138.83277
G1 X90.766 Y80.557 E138.94358
G0 F4500 X90.766 Y80.757
G0 X91.036 Y80.827
G0 X91.002 Y82.866
G0 X89.536 Y83.683
G0 X91.884 Y83.684
G0 X92.154 Y85.413
G0 X88.482 Y85.691
G0 X87.996 Y85.447
G1 F1800 X88.239 Y85.773 E138.98749
G1 X88.618 Y86.612 E139.08692
G1 X88.607 Y86.742 E139.10101
G1 X88.5 Y86.864 E139.11853
G1 X87.351 Y86.865 E139.24263
G1 X87.217 Y86.761 E139.26094
G1 X86.804 Y86.002 E139.35427
G1 X86.338 Y85.489 E139.42912
G1 X85.828 Y85.201 E139.49237
G1 X85.74 Y85.068 E139.5096
G1 X85.738 Y84.12 E139.61198
G1 X85.888 Y83.92 E139.63898
G1 X91.76 Y83.924 E140.27316
G1 X91.918 Y84.082 E140.29729
G1 X91.916 Y85.28 E140.42667
G1 X91.805 Y85.447 E140.44833
G1 X87.996 Y85.447 E140.8597
G0 F4500 X88.115 Y85.607
G0 X88.482 Y85.691
G0 X88.906 Y86.685
G0 X88.53 Y87.899
G0 X87.318 Y87.437
G0 X86.143 Y87.975
G0 X85.593 Y88.905
G0 X85.505 Y89.729
G0 X85.833 Y90.824
G0 X86.749 Y91.608
G0 X87.859 Y91.627
G0 X88.072 Y90.327
G0 X89.274 Y90.496
G0 X89.72 Y89.316
G0 X89.599 Y89.04
G1 F1800 X89.394 Y89.184 E140.88676
G1 X89.287 Y89.375 E140.9104
G1 X89.265 Y89.576 E140.93224
G1 F1624.1 X89.37 Y90.099 E140.99547
G1 F1545.5 X89.292 Y90.196 E141.01089
G1 F1710.2 X89.125 Y90.238 E141.03037
G1 F1815 X88.191 Y90.11 E141.13142
G1 F1871.8 X88.025 Y89.932 E141.15679
G1 F1856 X87.989 Y89.67 E141.18457
G1 F1800 X87.798 Y89.317 E141.22791
G1 X87.641 Y89.234 E141.24709
G1 X87.365 Y89.237 E141.2769
G1 X87.177 Y89.346 E141.30037
G1 X87.087 Y89.586 E141.32806
G1 X87.135 Y89.824 E141.35428
G1 X87.36 Y90.041 E141.38804
G1 F1856 X87.709 Y90.166 E141.42697
G1 F1871.8 X87.831 Y90.376 E141.45229
G1 F1815 X87.659 Y91.404 E141.56401
G1 F1733 X87.512 Y91.609 E141.59221
G1 F1705.7 X86.811 Y91.378 E141.6759
G1 F1761.2 X86.406 Y91.017 E141.73567
G1 F1790.1 X86 Y90.655 E141.79471
G1 F1800 X85.812 Y90.165 E141.85139
G1 X85.746 Y89.721 E141.89987
G1 X85.745 Y89.668 E141.9056
G1 X85.83 Y88.94 E141.98475
G1 X86.016 Y88.529 E142.03347
G1 X86.349 Y88.106 E142.09162
G1 X86.745 Y87.842 E142.14302
G1 X87.386 Y87.665 E142.21484
G1 X87.98 Y87.795 E142.28051
G1 X88.571 Y88.207 E142.35831
G1 X89.004 Y87.728 E142.42805
G1 X89.5 Y87.479 E142.48799
G1 X89.9 Y87.421 E142.53164
G1 X90.478 Y87.478 E142.59437
G1 X90.885 Y87.626 E142.64114
G1 X91.435 Y88.04 E142.71549
G1 X91.874 Y88.723 E142.80317
G1 X91.996 Y89.338 E142.87089
G1 X91.985 Y89.937 E142.93559
G1 X91.764 Y90.602 E143.01127
G1 X91.48 Y91.014 E143.06532
G1 X91.067 Y91.344 E143.12241
G1 F1820 X90.166 Y91.671 E143.22489
G1 X89.982 Y91.539 E143.24911
G1 F1805 X89.913 Y90.984 E143.30936
G1 F1624.1 X89.806 Y90.296 E143.39188
G1 F1556.8 X89.894 Y90.194 E143.40847
G1 F1719.3 X90.464 Y89.983 E143.4769
G1 F1800 X90.609 Y89.805 E143.5017
G1 X90.663 Y89.62 E143.52251
G1 X90.619 Y89.331 E143.55408
G1 X90.477 Y89.142 E143.57961
G1 X90.31 Y89.044 E143.60053
G1 X89.864 Y88.978 E143.64922
G1 X89.599 Y89.04 E143.67861
G0 F4500 X89.435 Y89.155
G0 X89.619 Y89.387
G0 X89.274 Y90.496
G0 X88.358 Y90.712
G0 X87.851 Y91.777
G0 X86.238 Y92.346
G0 X85.381 Y92.883
G0 X85.518 Y93.95
G0 X85.592 Y94.837
G0 X85.86 Y94.702
G1 F1800 X85.747 Y94.078 E143.7471
G1 X85.744 Y94.043 E143.75089
G1 X85.81 Y93.445 E143.81587
G1 X85.956 Y93.061 E143.86024
G1 X86.407 Y92.514 E143.93681
G1 F1790.1 X86.912 Y92.277 E143.99735
G1 F1765.9 X87.417 Y92.039 E144.0587
G1 F1775.6 X88.2 Y91.961 E144.14475
